src/Resource_Files/fluent/heading-4.svg

<svg clip-rule="evenodd" fill-rule="evenodd" stroke-linejoin="round" stroke-miterlimit="2" viewBox="0 0 16 16" xmlns="http://www.w3.org/2000/svg"><g fill="#1abc9c" fill-rule="nonzero"><path d="m2.189 7.242c.096-.078.199-.153.311-.226.394-.258.894-.394 1.503-.394.432 0 .838.076 1.217.226.381.151.714.358 1.001.622.288.265.518.576.689.934.174.363.261.748.261 1.155v4.083c0 .201-.079.346-.212.446-.113.086-.242.129-.386.129-.128 0-.252-.04-.37-.129-.133-.1-.211-.245-.211-.446v-4.083c0-.219-.05-.437-.147-.652-.1-.22-.238-.413-.414-.579-.181-.171-.392-.309-.634-.416-.235-.104-.484-.156-.746-.156-.238 0-.468.042-.692.126-.222.084-.42.202-.592.356-.171.154-.311.343-.419.567-.107.222-.159.474-.159.754v4.083c0 .15-.054.285-.17.402-.11.111-.251.173-.428.173-.185 0-.326-.068-.431-.185-.101-.114-.15-.245-.15-.39v-10.689c0-.188.066-.322.168-.416.093-.085.227-.144.413-.144.168 0 .301.051.405.137.124.102.193.241.193.423z"/><path d="m8.647 10.714 4.072-7.414c.137-.251.338-.367.592-.367.151 0 .28.047.389.137.128.106.192.242.192.408 0 .093-.024.197-.085.309l-3.681 6.685h2.841v-3.101c0-.21.086-.355.226-.448.109-.073.233-.111.371-.111.139 0 .263.038.372.111.14.093.226.238.226.448v3.101h.624c.201 0 .346.072.447.185.102.114.15.244.15.389 0 .146-.048.276-.15.39-.101.113-.246.185-.447.185h-.624v2.021c0 .201-.078.346-.212.446-.113.086-.241.129-.386.129-.144 0-.272-.043-.385-.129-.134-.1-.212-.245-.212-.446v-2.021h-3.829c-.212 0-.357-.08-.451-.199-.087-.11-.13-.235-.13-.376 0-.128.032-.238.09-.332z"/></g></svg>

<?xml version="1.0" encoding="UTF-8" standalone="no"?>
<!DOCTYPE svg PUBLIC "-//W3C//DTD SVG 1.1//EN" "http://www.w3.org/Graphics/SVG/1.1/DTD/svg11.dtd">
<svg width="100%" height="100%" viewBox="0 0 16 16" version="1.1" xmlns="http://www.w3.org/2000/svg" xmlns:xlink="http://www.w3.org/1999/xlink" xml:space="preserve" xmlns:serif="http://www.serif.com/" style="fill-rule:evenodd;clip-rule:evenodd;stroke-linejoin:round;stroke-miterlimit:2;">
    <path d="M2.189,7.242C2.285,7.164 2.388,7.089 2.5,7.016C2.894,6.758 3.394,6.622 4.003,6.622C4.435,6.622 4.841,6.698 5.22,6.848C5.601,6.999 5.934,7.206 6.221,7.47C6.509,7.735 6.739,8.046 6.91,8.404C7.084,8.767 7.171,9.152 7.171,9.559C7.171,9.559 7.171,13.642 7.171,13.642C7.171,13.843 7.092,13.988 6.959,14.088C6.846,14.174 6.717,14.217 6.573,14.217C6.445,14.217 6.321,14.177 6.203,14.088C6.07,13.988 5.992,13.843 5.992,13.642L5.992,9.559C5.992,9.34 5.942,9.122 5.845,8.907C5.745,8.687 5.607,8.494 5.431,8.328C5.25,8.157 5.039,8.019 4.797,7.912C4.562,7.808 4.313,7.756 4.051,7.756C3.813,7.756 3.583,7.798 3.359,7.882C3.137,7.966 2.939,8.084 2.767,8.238C2.596,8.392 2.456,8.581 2.348,8.805C2.241,9.027 2.189,9.279 2.189,9.559L2.189,13.642C2.189,13.792 2.135,13.927 2.019,14.044C1.909,14.155 1.768,14.217 1.591,14.217C1.406,14.217 1.265,14.149 1.16,14.032C1.059,13.918 1.01,13.787 1.01,13.642L1.01,2.953C1.01,2.765 1.076,2.631 1.178,2.537C1.271,2.452 1.405,2.393 1.591,2.393C1.759,2.393 1.892,2.444 1.996,2.53C2.12,2.632 2.189,2.771 2.189,2.953L2.189,7.242Z" style="fill:rgb(26,188,156);fill-rule:nonzero;"/>
    <path d="M8.647,10.714L12.719,3.3C12.856,3.049 13.057,2.933 13.311,2.933C13.462,2.933 13.591,2.98 13.7,3.07C13.828,3.176 13.892,3.312 13.892,3.478C13.892,3.571 13.868,3.675 13.807,3.787L10.126,10.472L12.967,10.472L12.967,7.371C12.967,7.161 13.053,7.016 13.193,6.923C13.302,6.85 13.426,6.812 13.564,6.812C13.703,6.812 13.827,6.85 13.936,6.923C14.076,7.016 14.162,7.161 14.162,7.371L14.162,10.472L14.786,10.472C14.987,10.472 15.132,10.544 15.233,10.657C15.335,10.771 15.383,10.901 15.383,11.046C15.383,11.192 15.335,11.322 15.233,11.436C15.132,11.549 14.987,11.621 14.786,11.621L14.162,11.621L14.162,13.642C14.162,13.843 14.084,13.988 13.95,14.088C13.837,14.174 13.709,14.217 13.564,14.217C13.42,14.217 13.292,14.174 13.179,14.088C13.045,13.988 12.967,13.843 12.967,13.642L12.967,11.621L9.138,11.621C8.926,11.621 8.781,11.541 8.687,11.422C8.6,11.312 8.557,11.187 8.557,11.046C8.557,10.918 8.589,10.808 8.647,10.714Z" style="fill:rgb(26,188,156);fill-rule:nonzero;"/>
</svg>
